(Header)
(Generated by gcodetools from Inkscape.)
(Using default header. To add your own header create file "header" in the output dir.)
M3
(Header end.)
G21 (All units in mm)

(Start cutting path id: path22)
(Change tool to Default tool)

G00 Z0.000000
G00 X108.962996 Y210.102964

G01 Z-0.125000 F100.0(Penetrate)
G02 X109.133051 Y210.313688 Z-0.125000 I0.420880 J-0.165673 F2400.000000
G02 X109.443627 Y210.423385 Z-0.125000 I0.371645 J-0.557706
G02 X146.384991 Y191.423065 Z-0.125000 I-35.592988 J-114.613423
G02 X174.489090 Y161.078552 Z-0.125000 I-71.903391 J-94.781383
G02 X187.208725 Y131.871401 Z-0.125000 I-91.264797 J-57.118831
G02 X190.830561 Y100.198561 Z-0.125000 I-104.131078 J-27.951044
G02 X186.345548 Y78.923436 Z-0.125000 I-78.403546 J5.417960
G02 X176.251406 Y59.825515 Z-0.125000 I-72.964493 J26.348567
G03 X190.156198 Y46.080903 Z-0.125000 I797.236957 J792.622262
G03 X204.288243 Y32.589730 Z-0.125000 I781.745502 J804.733554
G02 X206.521598 Y26.579660 Z-0.125000 I-13.472278 J-8.426322
G02 X206.210769 Y20.093312 Z-0.125000 I-16.110798 J-2.478584
G02 X198.214506 Y12.578881 Z-0.125000 I-13.868040 J6.745562
G02 X187.145720 Y12.242997 Z-0.125000 I-5.980202 J14.523308
G02 X182.605887 Y16.142433 Z-0.125000 I48.999181 J61.638635
G02 X178.334142 Y20.413732 Z-0.125000 I54.523668 J58.801101
G03 X167.815394 Y31.838476 Z-0.125000 I-300.297124 J-265.928532
G03 X156.865935 Y42.843202 Z-0.125000 I-289.244829 J-276.842606
G02 X129.437003 Y34.900949 Z-0.125000 I-34.636674 J68.284670
G02 X100.952471 Y37.556256 Z-0.125000 I-7.234164 J76.506359
G02 X82.730567 Y46.233625 Z-0.125000 I24.893463 J75.745715
G02 X67.308265 Y59.184673 Z-0.125000 I42.929347 J66.778985
G02 X66.192346 Y56.650109 Z-0.125000 I-9.501125 J2.670218
G02 X64.424476 Y54.538569 Z-0.125000 I-8.293643 J5.147949
G02 X60.141390 Y51.756179 Z-0.125000 I-100.004183 J149.254173
G02 X55.773110 Y49.091412 Z-0.125000 I-96.434576 J153.169804
G03 X50.294069 Y44.240077 Z-0.125000 I19.731841 J-27.804558
G03 X46.000269 Y38.357309 Z-0.125000 I24.969701 J-22.733641
G02 X43.081418 Y31.878885 Z-0.125000 I-162.335144 J69.243270
G02 X39.912270 Y25.540468 Z-0.125000 I-158.477645 J75.275842
G02 X30.849608 Y16.305625 Z-0.125000 I-27.539124 J17.961398
G02 X18.924694 Y11.281734 Z-0.125000 I-18.481378 J27.203477
G02 X14.759221 Y11.121681 Z-0.125000 I-4.165473 J54.124295
G02 X10.593749 Y11.281734 Z-0.125000 I-0.000000 J54.284348
G02 X8.803207 Y12.143121 Z-0.125000 I1.031712 J4.436259
G02 X7.549749 Y13.684892 Z-0.125000 I2.822326 J3.574963
G02 X7.496868 Y25.669348 Z-0.125000 I26.027236 J6.107189
G02 X12.676485 Y36.434782 Z-0.125000 I25.915905 J-5.840262
G02 X17.684302 Y41.437377 Z-0.125000 I33.722963 J-28.750346
G02 X23.410588 Y45.566781 Z-0.125000 I28.565593 J-33.577150
G03 X31.477740 Y49.125068 Z-0.125000 I-17.878623 J51.457271
G03 X38.790797 Y53.897727 Z-0.125000 I-25.456357 J46.995459
G03 X44.734608 Y60.495950 Z-0.125000 I-29.110483 J32.199569
G03 X49.204479 Y68.156461 Z-0.125000 I-34.965711 J25.536652
G02 X52.485224 Y70.824217 Z-0.125000 I10.951266 J-10.116446
G02 X56.413952 Y72.482145 Z-0.125000 I7.800684 J-13.001139
G02 X60.611541 Y74.663077 Z-0.125000 I6.669250 J-7.706182
G02 X65.385739 Y74.725092 Z-0.125000 I2.518357 J-10.073911
G02 X68.035213 Y76.733751 Z-0.125000 I2989.881683 J-3940.984773
G02 X70.672686 Y78.730354 Z-0.125000 I2653.737028 J-3502.789081
G03 X96.236152 Y63.827839 Z-0.125000 I41.517923 J41.842207
G03 X125.945308 Y63.189936 Z-0.125000 I16.090193 J57.227491
G03 X129.956016 Y64.527394 Z-0.125000 I-11.903693 J42.378544
G03 X133.795623 Y66.233935 Z-0.125000 I-15.725838 J40.554809
G03 X133.928346 Y66.554356 Z-0.125000 I-0.320421 J0.320421
G03 X133.795623 Y66.874777 Z-0.125000 I-0.453144 J0.000000
G01 X75.318790 Y127.914978 Z-0.125000
G03 X74.677981 Y127.907031 Z-0.125000 I-0.303623 J-1.357148
G03 X74.037106 Y127.594557 Z-0.125000 I0.417068 J-1.668839
G02 X62.803450 Y116.360961 Z-0.125000 I-791.472000 J780.242585
G02 X51.447426 Y105.325298 Z-0.125000 I-776.718158 J787.905294
G02 X38.923330 Y117.529034 Z-0.125000 I621.163328 J649.997760
G02 X26.614798 Y129.997715 Z-0.125000 I636.989106 J641.117101
G03 X51.307752 Y154.530449 Z-0.125000 I-7526.246579 J7600.092661
G03 X75.959632 Y179.182338 Z-0.125000 I-7559.785827 J7584.435097
G02 X97.594051 Y176.549456 Z-0.125000 I-157.870010 J-1387.420894
G02 X119.216467 Y173.574970 Z-0.125000 I-179.864121 J-1387.562860
G02 X119.210521 Y173.082308 Z-0.125000 I-1.602848 J-0.227019
G02 X119.056257 Y172.613707 Z-0.125000 I-1.594654 J0.265269
G02 X104.009330 Y157.246470 Z-0.125000 I-1465.298353 J1419.705823
G02 X88.776472 Y142.013502 Z-0.125000 I-1456.468611 J1441.225175
G03 X120.991716 Y111.400226 Z-0.125000 I5987.834384 J6268.915519
G03 X153.341304 Y80.973301 Z-0.125000 I5953.226394 J6296.997870
G03 X163.697307 Y102.117466 Z-0.125000 I-45.990223 J35.633289
G03 X164.876460 Y125.832242 Z-0.125000 I-57.306789 J14.736128
G03 X146.215730 Y174.344689 Z-0.125000 I-118.521657 J-17.745145
G03 X108.962996 Y210.102964 Z-0.125000 I-98.557987 J-65.393094
G01 X108.962996 Y210.102964 Z-0.125000
G00 Z0.000000

(End cutting path id: path22)


(Footer)
M5
G00 X0.0000 Y0.0000
M2
(Using default footer. To add your own footer create file "footer" in the output dir.)
(end)
